X: 100409
T: LA GITANA POLKA
R: polka
B: K\"ohler's Violin Repository, v.3, 1885 p.264 #2
F: http://www.archive.org/details/klersviolinrepos03rugg
Z: 2012 John Chambers <jc:trillian.mit.edu>
M: 2/4
L: 1/16
K: C
uc2 |\
(.B3.c) d2f2 | {fg}f2e2 efe2 | {ef}e2d2 ded2 | {de}d2c2 cdc2 |\
(.B3.c) d2f2 | {fg}f2e2 efe2 | {ef}e2d2 ded2 | c2c2c2 :|
|:[K:G] ud2 |\
d2(ef) gabc' | d'2d2 b4 | {bc'}b2a2 aba2 | {ab}a2g2 gag2 |\
d2e^f gabc' | d'2d2 b4 | {bc'}b2a2 aba2 | g2b2g2 :|

%%sep 2 1 500

